X:206
L:1/4
M:3/4
K:D
 D | F F G | A d A | A e A | A f d | B G E | D2 F | E2 A | G/F/ E/F/ D | F F G | A d A | 
 A e A A f d | B g e | a2 f/e/ | A B c | d2 :| A | A E A | A F A | A E A | A F D | d2 B | A2 F | 
 A G E | G F A | A E A | A F A | A E A | A F D | d/c/ e/d/ c/B/ | A2 F | G F E D2 |: A | F F G | 
 A f e/d/ | d/c/ c/B/ c/e/ | d/e/ f/d/ A/F/ | F F G | A f e/d/ | d/e/c/ c/B/ c/e/ | d2 :|

